static/img/logos/docker.svg

<svg fill="none" height="32" viewBox="0 0 32 32" width="32" xmlns="http://www.w3.org/2000/svg" xmlns:xlink="http://www.w3.org/1999/xlink"><clipPath id="a"><path d="m0 3h32v25h-32z"/></clipPath><g clip-path="url(#a)"><path d="m31.4795 13.2718c-.7845-.5227-2.846-.7459-4.3447-.3464-.0808-1.4776-.8505-2.7228-2.2587-3.80922l-.5213-.34637-.3474.51935c-.683 1.02614-.9707 2.39324-.8687 3.63584.0804.7657.3495 1.6263.8687 2.2508-1.9507 1.12-3.7486.8657-11.7111.8657h-12.29378416c-.03596644 1.7797.25303516 5.2032 2.45249416 7.9901.24288.3078.50945.6056.79845.8925 1.78817 1.7725 4.48989 3.0721 8.52994 3.0759 6.1634.0054 11.4441-3.292 14.6562-11.2653 1.057.0172 3.8471.1876 5.2126-2.4242.0334-.044.3474-.6927.3474-.6927l-.5205-.3464zm-23.45392-1.6276h-3.45702v3.4219h3.45702zm4.46622 0h-3.45705v3.4219h3.45705zm4.4662 0h-3.4571v3.4219h3.4571zm4.4661 0h-3.457v3.4219h3.457zm-17.86471 0h-3.457014v3.4219h3.457014zm4.46619-4.32187h-3.45702v3.42187h3.45702zm4.46622 0h-3.45705v3.42187h3.45705zm4.4662 0h-3.4571v3.42187h3.4571zm0-4.32233h-3.4571v3.42185h3.4571z" fill="#1d63ed"/></g></svg>

<svg width="32" height="32" viewBox="0 0 32 32" fill="none" xmlns="http://www.w3.org/2000/svg">
<g clip-path="url(#clip0_4394_9)">
<path d="M31.4795 13.2718C30.695 12.7491 28.6335 12.5259 27.1348 12.9254C27.054 11.4478 26.2843 10.2026 24.8761 9.11618L24.3548 8.76981L24.0074 9.28916C23.3244 10.3153 23.0367 11.6824 23.1387 12.925C23.2191 13.6907 23.4882 14.5513 24.0074 15.1758C22.0567 16.2958 20.2588 16.0415 12.2963 16.0415H0.00251584C-0.0334506 17.8212 0.255551 21.2447 2.45501 24.0316C2.69789 24.3394 2.96446 24.6372 3.25346 24.9241C5.04163 26.6966 7.74335 27.9962 11.7834 28C17.9468 28.0054 23.2275 24.708 26.4396 16.7347C27.4966 16.7519 30.2867 16.9223 31.6522 14.3105C31.6856 14.2665 31.9996 13.6178 31.9996 13.6178L31.4791 13.2714L31.4795 13.2718ZM8.02558 11.6442H4.56856V15.0661H8.02558V11.6442ZM12.4918 11.6442H9.03475V15.0661H12.4918V11.6442ZM16.958 11.6442H13.5009V15.0661H16.958V11.6442ZM21.4241 11.6442H17.9671V15.0661H21.4241V11.6442ZM3.55939 11.6442H0.102376V15.0661H3.55939V11.6442ZM8.02558 7.32233H4.56856V10.7442H8.02558V7.32233ZM12.4918 7.32233H9.03475V10.7442H12.4918V7.32233ZM16.958 7.32233H13.5009V10.7442H16.958V7.32233ZM16.958 3H13.5009V6.42185H16.958V3Z" fill="#1D63ED"/>
</g>
<defs>
<clipPath id="clip0_4394_9">
<rect width="32" height="25" fill="white" transform="translate(0 3)"/>
</clipPath>
</defs>
</svg>
